public/icons/volume-cross.svg

<?xml version="1.0" encoding="utf-8"?>
<!-- Uploaded to: SVG Repo, www.svgrepo.com, Generator: SVG Repo Mixer Tools -->
<svg width="800px" height="800px" viewBox="0 0 24 24" fill="none" xmlns="http://www.w3.org/2000/svg">
<path d="M21.7803 3.53033C22.0732 3.23744 22.0732 2.76256 21.7803 2.46967C21.4874 2.17678 21.0126 2.17678 20.7197 2.46967L16.2705 6.91886C16.2246 6.39532 16.1646 5.93197 16.077 5.52977C15.9052 4.74135 15.6003 4.05581 14.9609 3.60646C14.7259 3.44128 14.4642 3.30809 14.1923 3.21531C13.3741 2.9361 12.5608 3.15928 11.7348 3.56055C10.9212 3.95576 9.93412 4.60663 8.70324 5.41822L8.43647 5.59411C7.98856 5.88944 7.83448 5.98815 7.67513 6.05848C7.50452 6.13378 7.3252 6.18757 7.14132 6.21862C6.96956 6.24762 6.7866 6.25003 6.25008 6.25003L6.08906 6.24998C4.87215 6.24933 4.02659 6.24889 3.27496 6.59664C2.58016 6.9181 1.91141 7.54732 1.54828 8.22128C1.15566 8.94996 1.10959 9.712 1.04409 10.7955L1.03618 10.926C1.01373 11.2943 1 11.6585 1 12C1 12.3416 1.01373 12.7058 1.03618 13.0741L1.04409 13.2045C1.10959 14.2881 1.15566 15.0501 1.54828 15.7788C1.91141 16.4527 2.58016 17.082 3.27496 17.4034C3.88551 17.6859 4.55803 17.7386 5.44121 17.7481L2.71967 20.4697C2.42678 20.7626 2.42678 21.2374 2.71967 21.5303C3.01256 21.8232 3.48744 21.8232 3.78033 21.5303L21.7803 3.53033Z" fill="#1C274C"/>
<g opacity="0.4">
<path d="M16.2382 9.07225L7.61424 17.6963C8.00956 18.1712 9.02592 18.8138 9.33873 19.0002C10.3775 19.6809 11.2373 20.2249 11.9702 20.5491C12.7125 20.8775 13.4501 21.0381 14.1921 20.7849C14.464 20.6921 14.7257 20.5589 14.9607 20.3937C15.6668 19.8975 15.9657 19.1135 16.1276 18.2141C16.2868 17.3297 16.3412 16.1578 16.409 14.6979L16.4117 14.6404C16.4635 13.5254 16.4998 12.5522 16.4998 12.0002C16.4998 11.9729 16.5 11.9363 16.5002 11.8916C16.503 11.3245 16.5122 9.46272 16.2382 9.07225Z" fill="#1C274C"/>
<path d="M20.5143 6.31657C20.8918 6.14622 21.336 6.3142 21.5063 6.69176C21.9734 7.7269 22.4998 9.45974 22.4998 12.0002C22.4998 14.1917 22.108 15.783 21.6998 16.8444C21.496 17.3742 21.2892 17.7693 21.1273 18.0392C21.0464 18.174 20.9768 18.2774 20.9246 18.3505C20.8984 18.3871 20.8767 18.4161 20.86 18.4377C20.8516 18.4485 20.8446 18.4574 20.8389 18.4645L20.8314 18.4738L20.8284 18.4774L20.8271 18.4789C20.8271 18.4789 20.826 18.4803 20.2512 18.0013L20.826 18.4803C20.5608 18.7985 20.0879 18.8415 19.7697 18.5763C19.453 18.3124 19.4089 17.8428 19.6698 17.5246L19.6733 17.5202L19.6834 17.5068C19.6888 17.4996 19.6957 17.4902 19.704 17.4787C19.7337 17.437 19.7813 17.3669 19.8411 17.2674C19.9604 17.0685 20.1286 16.7512 20.2998 16.3059C20.6416 15.4173 20.9998 14.0086 20.9998 12.0002C20.9998 9.67383 20.5192 8.15116 20.1391 7.30865C19.9687 6.93109 20.1367 6.48692 20.5143 6.31657Z" fill="#1C274C"/>
<path d="M19.3006 9.84771C19.2164 9.44214 18.8194 9.18162 18.4138 9.26583C18.0082 9.35003 17.7477 9.74706 17.8319 10.1526C17.9204 10.5789 17.9998 11.1874 17.9998 12.0002C17.9998 12.99 17.882 13.6773 17.7733 14.1014C17.7189 14.3137 17.6665 14.461 17.6316 14.5482C17.6141 14.5918 17.601 14.6205 17.5941 14.6349L17.5891 14.6452C17.3953 15.0058 17.5266 15.4563 17.8856 15.6558C18.2477 15.8569 18.7043 15.7265 18.9054 15.3644L18.2509 15.0008C18.9054 15.3644 18.9061 15.3631 18.9061 15.3631L18.9069 15.3617L18.9086 15.3586L18.9124 15.3515L18.9221 15.3332C18.9293 15.3191 18.9382 15.3014 18.9484 15.2798C18.9689 15.2368 18.9949 15.1788 19.0243 15.1053C19.0831 14.9581 19.1557 14.7492 19.2263 14.4739C19.3676 13.923 19.4998 13.1103 19.4998 12.0002C19.4998 11.0891 19.4107 10.3782 19.3006 9.84771Z" fill="#1C274C"/>
</g>
</svg>

<svg xmlns="http://www.w3.org/2000/svg" width="800" height="800" fill="none" viewBox="0 0 24 24"><path fill="#1C274C" d="M21.78 3.53a.75.75 0 0 0-1.06-1.06l-4.45 4.45c-.05-.52-.1-.99-.2-1.39-.16-.79-.47-1.47-1.1-1.92-.24-.17-.5-.3-.78-.4-.82-.27-1.63-.05-2.46.35-.8.4-1.8 1.05-3.03 1.86l-.26.17c-.45.3-.6.4-.76.47-.18.07-.35.13-.54.16-.17.03-.35.03-.89.03h-.16c-1.22 0-2.06 0-2.82.35-.69.32-1.36.95-1.72 1.62-.4.73-.44 1.5-.5 2.58l-.01.13a17.87 17.87 0 0 0 0 2.14v.13c.07 1.09.12 1.85.5 2.58.37.67 1.04 1.3 1.73 1.62.62.29 1.29.34 2.17.35l-2.72 2.72a.75.75 0 1 0 1.06 1.06l18-18Z"/><g fill="#1C274C" opacity=".4"><path d="M16.24 9.07 7.6 17.7c.4.47 1.42 1.11 1.73 1.3 1.04.68 1.9 1.22 2.63 1.55.74.33 1.48.49 2.22.23.27-.09.54-.22.77-.39.7-.5 1-1.28 1.17-2.18.16-.88.21-2.05.28-3.51v-.06c.05-1.11.09-2.09.09-2.64v-.1c0-.58.01-2.44-.26-2.83ZM20.51 6.32c.38-.17.83 0 1 .37.46 1.04.99 2.77.99 5.31 0 2.2-.4 3.78-.8 4.84a7.7 7.7 0 0 1-.86 1.62v.01h-.01l-.58-.47.58.48a.75.75 0 0 1-1.16-.96l.01-.01a1.96 1.96 0 0 0 .16-.24c.12-.2.29-.52.46-.96.34-.9.7-2.3.7-4.31 0-2.33-.48-3.85-.86-4.7a.75.75 0 0 1 .37-.98ZM19.3 9.85a.75.75 0 1 0-1.47.3c.09.43.17 1.04.17 1.85a8.52 8.52 0 0 1-.37 2.55 1.5 1.5 0 0 1-.04.08v.02a.75.75 0 0 0 1.32.71l-.66-.36.66.36.01-.03a1.88 1.88 0 0 0 .1-.22 10 10 0 0 0 .48-3.1c0-.92-.09-1.63-.2-2.16Z"/></g></svg>
